X:152
T:Gadael y Tir - Leaving the Land
M:2/4
L:1/8
Q:90
C:Trad.
S:Davidsons Musical Miracles 1859
R:Lament
K:G
F>F FF | E>F G/F/G/E/ | ^DB Bc | BA GF | E>F G E |
=D/E/F/G/ AF | G2 GF | G>A BA/G/ | F2 FF |
| EF GA | B2 Bc | B>A GG | AB cB | AG F>F|
GE ^D>F | E4 ||
